!!!OTL: Der gebrochene Krug (47b), S.151
!!!id: T0180
**kern
*clefG2
*k[]
*G:
{4d
=1
4g
4g
4a
4a
=2
8b
8a
8a
8a
4g}
=3
{4g
=4
4b
4b
4cc
4cc
=5
2dd}
4r
=6
{4b
=7
4dd
4dd
4dd
4ee
=8
4dd
4dd
4b}
=9
{4dd
=10
4dd
4b
4cc
4a
=11
2b}
4r
=12
{8dd
8dd
=13
4b
4g
4b
4a
=14
2g}
4r
==
*-
!!!minrhy: 8
!!!meters: 4/4 ]  ZZ[5
!!!cut: Der gebrochene Krug (47b), S.151
!!!reg: Luxemburg
!!!trd: Singendes Volk, Esch-Alzette 1937 posth.
!!!rhy1: X_  X_X_X_X_  XXXXX_
!!!rhy2: X_  X_X_X_X_  X__0_
!!!key: T0180  08  G 4/4 ]  ZZ[5
!!!mod: SECHSTONSKALA DUR ?]  AMBITUS[9
!!!kad: 15331
!!!akz: 1231_345_5553_543_331_
!!!fot: 'a__as'b__c__d__
!!!for: 'a__aw_aw_aw_aw_
!!!fok: '^a_/__^__\__\__
!! PHRAS[AUFTAKTIG]
!!!fkt: Liebeslieder
!!!bem1: Heffingen, fff Anna Kimmel, 12.4.1933
!!!bem2: (47c)- Rammeldingen, fff Wagner, 17.2.1934
!! THILL, Mathias:
!! PR[56] 2K[0] 2G[8] 3K[2] 3G[4] 4A[6] 4Ü[0] 5A[0] 6K[0] 6G[0]
!! 7K[0] 7G[0] 8A[0] MEHR[0] SI[21] ABS[48] SR[8] SP[13]
!! ST[10] 2k[2] 2g[13] 3k[2] 3g[4] 4d[2] 4ü[0] 5d[0] 6k[0] 6g[0]
!! 7k[0] 7g[0] 8d[0] mehr[0] si[23] dm[-2] sr[15] sp[8]
!! 1F[12] 2F[66] 3F[18] 4F[0] LF[0] 2P[0] 3P[4] 4P[0] TRI[0] DF[4] AB[50]
!! TF[0] U3K[0] U3[0] U4[0] U4Ü[0] U5[2] U6K[0] U6[0] U7K[0] U7[0]
!! N1[16] N2K[0] N2[16] N3K[0] N3[6] N4[20] N4Ü[0] N5[29] N6K[0] N6[10]
!!!n7k: 0] N7[0] O1[0] O2K[0] O2[0] O3K[0] O3[0] HÖ[0
